packages/icons/raw/imported/FilesAdd.svg

<svg width="32" height="32" viewBox="0 0 32 32" fill="none" xmlns="http://www.w3.org/2000/svg">
<path d="M8.50002 11.6154L8.15109 11.2573L8.00003 11.4045L8.00002 11.6154L8.50002 11.6154ZM13.75 6.5V6H13.5467L13.4011 6.14189L13.75 6.5ZM23.5 9.42308H23H23.5ZM23.5 22.5769H24H23.5ZM8.5 22.5769L9 22.5769L8.5 22.5769ZM14.5 12.3462V12.8462H15V12.3462H14.5ZM8.50002 12.3462L8.00002 12.3462V12.3462L8.50002 12.3462ZM13 18.4231C12.7239 18.4231 12.5 18.647 12.5 18.9231C12.5 19.1992 12.7239 19.4231 13 19.4231V18.4231ZM19 19.4231C19.2761 19.4231 19.5 19.1992 19.5 18.9231C19.5 18.647 19.2761 18.4231 19 18.4231V19.4231ZM16.5 16C16.5 15.7239 16.2761 15.5 16 15.5C15.7239 15.5 15.5 15.7239 15.5 16H16.5ZM15.5 21.8462C15.5 22.1223 15.7239 22.3462 16 22.3462C16.2761 22.3462 16.5 22.1223 16.5 21.8462H15.5ZM8.84896 11.9735L14.0989 6.85811L13.4011 6.14189L8.15109 11.2573L8.84896 11.9735ZM11.5 26H20.5V25H11.5V26ZM23 9.42308L23 22.5769H24L24 9.42308H23ZM11.5 25C10.107 25 9 23.903 9 22.5769L8 22.5769C8 24.4796 9.57932 26 11.5 26V25ZM20.5 26C22.4207 26 24 24.4796 24 22.5769H23C23 23.903 21.893 25 20.5 25V26ZM20.5 7C21.893 7 23 8.09701 23 9.42308H24C24 7.5204 22.4207 6 20.5 6V7ZM13.75 7H14.5V6H13.75V7ZM14.5 7H20.5V6H14.5V7ZM8.00002 11.6154L8.00002 12.3462L9.00002 12.3462L9.00002 11.6154L8.00002 11.6154ZM8.00002 12.3462L8 22.5769L9 22.5769L9.00002 12.3462L8.00002 12.3462ZM14 6.5V12.3462H15V6.5H14ZM14.5 11.8462H8.50002V12.8462H14.5V11.8462ZM13 19.4231H19V18.4231H13V19.4231ZM15.5 16L15.5 21.8462H16.5L16.5 16H15.5Z" fill="black"/>
</svg>

<svg width="32" height="32" fill="none" xmlns="http://www.w3.org/2000/svg"><path d="m8.5 11.615-.349-.358-.151.148v.21h.5ZM13.75 6.5V6h-.203l-.146.142.349.358Zm9.75 2.923H23h.5Zm0 13.154h.5-.5Zm-15 0H9h-.5Zm6-10.23v.5h.5v-.5h-.5Zm-6 0H8h.5Zm4.5 6.076a.5.5 0 0 0 0 1v-1Zm6 1a.5.5 0 0 0 0-1v1ZM16.5 16a.5.5 0 0 0-1 0h1Zm-1 5.846a.5.5 0 0 0 1 0h-1Zm-6.651-9.873 5.25-5.115-.698-.716-5.25 5.115.698.716ZM11.5 26h9v-1h-9v1ZM23 9.423v13.154h1V9.423h-1ZM11.5 25C10.107 25 9 23.903 9 22.577H8C8 24.48 9.58 26 11.5 26v-1Zm9 1c1.92 0 3.5-1.52 3.5-3.423h-1C23 23.903 21.893 25 20.5 25v1Zm0-19C21.893 7 23 8.097 23 9.423h1C24 7.52 22.42 6 20.5 6v1Zm-6.75 0h.75V6h-.75v1Zm.75 0h6V6h-6v1ZM8 11.615v.731h1v-.73H8Zm0 .731v10.23h1v-10.23H8ZM14 6.5v5.846h1V6.5h-1Zm.5 5.346h-6v1h6v-1ZM13 19.423h6v-1h-6v1ZM15.5 16v5.846h1V16h-1Z" fill="#000"/></svg>
